icons/Document/file-lock-fill.svg

<svg viewBox="0 0 24 24" xmlns="http://www.w3.org/2000/svg"><path d="M16 2L21 7V21.0082C21 21.556 20.5551 22 20.0066 22H3.9934C3.44476 22 3 21.5447 3 21.0082V2.9918C3 2.44405 3.44495 2 3.9934 2H16ZM15 11V10C15 8.34315 13.6569 7 12 7C10.3431 7 9 8.34315 9 10V11H8V16H16V11H15ZM13 11H11V10C11 9.44772 11.4477 9 12 9C12.5523 9 13 9.44772 13 10V11Z"/></svg>

<svg xmlns="http://www.w3.org/2000/svg" viewBox="0 0 24 24">
    <g>
        <path fill="none" d="M0 0h24v24H0z"/>
        <path d="M16 2l5 5v14.008a.993.993 0 0 1-.993.992H3.993A1 1 0 0 1 3 21.008V2.992C3 2.444 3.445 2 3.993 2H16zm-1 9v-1a3 3 0 0 0-6 0v1H8v5h8v-5h-1zm-2 0h-2v-1a1 1 0 0 1 2 0v1z"/>
    </g>
</svg>
